X: 8069
T: Connolly's Ale
R: jig
M: 6/8
K: Gmajor
D|GBB BAB|GBd def|gfe edB|BAA A2B|
GBB BAB|GBd def|gfe fdB|AGG G2||
B|def gfe|agf edB|gfe fdB|BAA A2B|
GBB BAB|GBd def|gfe fdB|AGG G2||

